X:1
T:Buxtehude - Aria:  La Capricciosa in G Minor.
%%score { ( 1 2 ) | ( 3 4 ) }
L:1/8
Q:1/4=100
M:4/4
K:G
V:1 treble nm="Harpsichord" snm="Hch."
V:2 treble 
V:3 bass 
V:4 bass 
V:1
"^Partita 17"!f! d2 d2 e2 e2 | d2 c2 B2 G2 | B2 d2 c2 B2 | A2 MA2 MG2 G2 :: B2 B2 c2 d2 | %5
 A2 A2 B2 G2 | B2 B2 c2 B2 | A2 MA2 MG2 G2 :| %8
V:2
 z/ G/B z/ G/B z/ G/c z/ G/c | z/ F/G z/ G/F z/ D/G z/ B,/D | z/ D/G z/ D/G z/ F/G z/ F/G | %3
 z/ D/E z/ A,/C z/ (B,/D) z/ (B,/D) :: z/ D/G z/ D/G z/ F/G z/ F/G | %5
 z/ E/F z/ E/F z/ D/G x/ (B,/D) | z/ D/G z/ D/G z/ E/G z/ E/G | %7
 z/ E/G z/ D/F z/ (B,/D) z/ (B,/D) :| %8
V:3
 z z/ D/ z z/ D/ z z/ C/ z z/ C/ | z z/ B,/ z z/ A,/ z z/ G,/ z z/ G,/ | %2
 z z/ G,/ z z/ G,/ z z/ G,/ z z/ G,/ | z z/ G,/ z z/ F,/ z z/ G,/ z z/ G,/ :: %4
 z z/ G,/ z z/ G,/ z z/ G,/ z z/ G,/ | z z/ A,/ z z/ A,/ z z/ G,/ z z/ G,/ | %6
 z z/ G,/ z z/ G,/ z z/ G,/ z z/ G,/ | z z/ C/ z z/ C/ z z/ G,/ z z/ G,/ :| %8
V:4
 G,2 G,2 C,2 C,2 | D,2 D,2 G,,2 G,,2 | G,,2 B,,2 E,,2 D,,2 | C,,2 D,,2 G,,2 G,,2 :: %4
 G,,2 G,,2 A,,2 B,,2 | C,2 D,2 G,,2 G,,2 | G,,2 F,2 E,2 D,2 | C,2 D,2 G,,2 G,,2 :| %8

